X: 1
T:Mike Campbell's Reel
M:4/4
L:1/8
Q:200
C:Stephen McNally
S: 1995
R:Reel
N:For Mike Campbell of Oban
H:
K:D
|:(3FEF BF dfed|(3cBc (3ABc EBAG|(3FEF BF dfed|1c2 (3ABc dBB2:|2c2 (3ABc
 dBBc||
d2fd afed|(3cBc (3ABc eABc|d2fd afed|(3cBc (3ABc dBBc|d2fd afed|(3cBc (3
ABc EBAG|(3FEF BF dfed|c2 (3ABc dBB2||
|:(3B^AB FF dFBF|(3B^AB GG dGBG|(3cBc (3AAA EA (3fed|1(3cBc (3ABc dBB2:|
2(3cBc (3ABc dBBc||
d2Ad fdFd|(3ddd Bd gdGd|(3ddd cd Adcd|(3cBc (3ABc dBBc|d2Ad FdDd|(3ddd B
d GdDd|(3cBc (3ABA EA (3fed|(3cBc (3ABc dBB2||
